!!!ONR: No. 29
!! From Harold Courlander, "Haiti Singing"
!! Chapel Hill: University of North Carolina Press, 1939
!! Copyright University of North Carolina Press
!!!ENC: D. Huron
**kern
*clefG2
*k[]
*M2/4
=1-
8r
8c
8c
8c
=
[2f
=
8f]
8c
8f
8a
=
8cc
8a
8g
[8f
=
8f]
8f
8g
8a
=
[2g
=
8g]
8g
8b-
8b-
=
8a
8b-
4cc
=
8bn
8b
8g
8g
=
6e
6c
[6A
=
8A]
8c
8c
8c
=
6f
6d
6B
=
8G
8c
8c
8c
=
6g
6g
[6f
=
8f]
8c
8c
8c
=
6f
6d
6B
=
8G
8c
8c
8c
=
6g
6g
[6f
=
2f]
==
*-
